svg/user_female.svg

<svg xmlns="http://www.w3.org/2000/svg" viewBox="0 0 32 32" enable-background="new 0 0 32 32"><path d="M 18.125 4 C 14.82128 4 11.140832 4.5619067 8.40625 7.59375 C 5.6716679 10.625593 4 15.880357 4 25 L 4 26 L 5 26 L 12.65625 26 C 13.64512 26.624629 14.759046 27 16 27 C 17.24015 27 18.354742 26.61707 19.34375 26 L 28 26 L 29 26 L 29 25 C 29 16.874706 27.429684 12.155539 25.375 9.40625 C 23.565932 6.9856096 21.482722 6.3122487 19.9375 6.15625 L 19 4.5 L 18.71875 4 L 18.125 4 z M 17.5625 6.0625 L 18.375 7.5 L 18.65625 8 L 19.25 8 C 20.260707 8 22.097684 8.3410393 23.78125 10.59375 C 25.384608 12.739138 26.801004 16.83027 26.9375 24 L 21.5625 24 C 21.672152 23.859679 21.772928 23.708238 21.875 23.5625 C 23.232638 21.624061 24 19.206716 24 17 L 22 17 C 22 18.722284 21.356112 20.826939 20.25 22.40625 C 19.143888 23.985561 17.664699 25 16 25 C 14.336909 25 12.856619 23.98853 11.75 22.40625 C 10.643381 20.82397 10 18.711045 10 17 C 10 16.556131 10.08518 16.333221 10.21875 16.15625 C 10.352315 15.979279 10.584318 15.826901 10.9375 15.6875 C 11.643864 15.408698 12.835504 15.293318 14.09375 15.1875 C 15.351996 15.081682 16.663507 14.982025 17.84375 14.4375 C 19.023993 13.892975 20 12.660378 20 11 L 18 11 C 18 12.044122 17.726007 12.304462 17.03125 12.625 C 16.336493 12.945538 15.148004 13.083068 13.90625 13.1875 C 12.664496 13.291932 11.356136 13.351239 10.1875 13.8125 C 9.6031821 14.04313 9.0383103 14.38987 8.625 14.9375 C 8.2116897 15.48513 8 16.216619 8 17 C 8 19.197955 8.7678691 21.59078 10.125 23.53125 C 10.235329 23.689002 10.349573 23.848296 10.46875 24 L 6.0625 24 C 6.196623 15.837475 7.7722044 11.303526 9.90625 8.9375 C 11.993574 6.6232751 14.689365 6.1220919 17.5625 6.0625 z M 13 17 C 12.447715 17 12 17.447715 12 18 C 12 18.552285 12.447715 19 13 19 C 13.552285 19 14 18.552285 14 18 C 14 17.447715 13.552285 17 13 17 z M 19 17 C 18.447715 17 18 17.447715 18 18 C 18 18.552285 18.447715 19 19 19 C 19.552285 19 20 18.552285 20 18 C 20 17.447715 19.552285 17 19 17 z"/></svg>

<svg xmlns="http://www.w3.org/2000/svg" viewBox="0 0 32 32"><path d="M18.125 4c-3.304 0-6.984.562-9.72 3.594C5.673 10.626 4 15.88 4 25v1H12.656c.99.625 2.103 1 3.344 1 1.24 0 2.355-.383 3.344-1H29v-1c0-8.125-1.57-12.844-3.625-15.594-1.81-2.42-3.892-3.094-5.438-3.25L19 4.5l-.28-.5h-.595zm-.563 2.063l.813 1.437.28.5h.595c1.01 0 2.848.34 4.53 2.594C25.386 12.74 26.8 16.83 26.938 24h-5.375c.11-.14.21-.292.313-.438C23.233 21.625 24 19.207 24 17h-2c0 1.722-.644 3.827-1.75 5.406C19.144 23.986 17.665 25 16 25c-1.663 0-3.143-1.01-4.25-2.594C10.643 20.824 10 18.71 10 17c0-.444.085-.667.22-.844.132-.177.364-.33.717-.468.707-.28 1.9-.395 3.157-.5 1.258-.106 2.57-.206 3.75-.75C19.024 13.893 20 12.66 20 11h-2c0 1.044-.274 1.304-.97 1.625-.694.32-1.882.458-3.124.563-1.242.104-2.55.163-3.72.624-.583.23-1.148.578-1.56 1.126C8.21 15.485 8 16.218 8 17c0 2.198.768 4.59 2.125 6.53.11.16.225.318.344.47H6.06c.135-8.163 1.71-12.696 3.844-15.063 2.088-2.314 4.783-2.815 7.656-2.874zM13 17c-.552 0-1 .448-1 1s.448 1 1 1 1-.448 1-1-.448-1-1-1zm6 0c-.552 0-1 .448-1 1s.448 1 1 1 1-.448 1-1-.448-1-1-1z"/></svg>
